Adwaita/scalable/actions/edit-delete-symbolic.svg

<?xml version="1.0" encoding="UTF-8"?>
<svg height="16px" viewBox="0 0 16 16" width="16px" xmlns="http://www.w3.org/2000/svg">
    <path d="m 8 1.03125 c -3.851562 0 -6.96875 3.117188 -6.96875 6.96875 s 3.117188 6.96875 6.96875 6.96875 s 6.96875 -3.117188 6.96875 -6.96875 s -3.117188 -6.96875 -6.96875 -6.96875 z m -3 3.96875 h 1 h 0.03125 c 0.253906 0.011719 0.511719 0.128906 0.6875 0.3125 l 1.28125 1.28125 l 1.3125 -1.28125 c 0.265625 -0.230469 0.445312 -0.304688 0.6875 -0.3125 h 1 v 1 c 0 0.285156 -0.035156 0.550781 -0.25 0.75 l -1.28125 1.28125 l 1.25 1.25 c 0.1875 0.1875 0.28125 0.453125 0.28125 0.71875 v 1 h -1 c -0.265625 0 -0.53125 -0.09375 -0.71875 -0.28125 l -1.28125 -1.28125 l -1.28125 1.28125 c -0.1875 0.1875 -0.453125 0.28125 -0.71875 0.28125 h -1 v -1 c 0 -0.265625 0.09375 -0.53125 0.28125 -0.71875 l 1.28125 -1.25 l -1.28125 -1.28125 c -0.210938 -0.195312 -0.304688 -0.46875 -0.28125 -0.75 z m 0 0" fill="#2e3436"/>
</svg>

<svg xmlns="http://www.w3.org/2000/svg" width="16" height="16"><path d="M8 1.031A6.963 6.963 0 001.031 8 6.963 6.963 0 008 14.969 6.963 6.963 0 0014.969 8 6.963 6.963 0 008 1.031zM5 5h1.031c.255.011.51.129.688.313L8 6.593l1.312-1.28c.266-.231.447-.306.688-.313h1v1c0 .286-.034.55-.25.75L9.469 8.031l1.25 1.25c.188.188.281.454.281.719v1h-1c-.265 0-.53-.093-.719-.281L8 9.438l-1.281 1.28A1.015 1.015 0 016 11H5v-1c0-.265.093-.53.281-.719l1.281-1.25-1.28-1.281A.909.909 0 015 6z" style="line-height:normal;-inkscape-font-specification:'Andale Mono';text-indent:0;text-align:start;text-decoration-line:none;text-transform:none;marker:none" color="#bebebe" font-weight="400" font-family="Andale Mono" overflow="visible" fill="#474747"/></svg>
